Newaita-dark/apps/24/texstudio.svg

<svg height="24" viewBox="0 0 24 24" width="24" xmlns="http://www.w3.org/2000/svg" xmlns:xlink="http://www.w3.org/1999/xlink"><linearGradient id="a" gradientUnits="userSpaceOnUse" x1="11.90739" x2="11.90739" y1="21.02545225" y2="22.01773525002"><stop offset="0" stop-opacity=".27451"/><stop offset="1" stop-opacity="0"/></linearGradient><linearGradient id="b"><stop offset="0" stop-opacity=".313726"/><stop offset=".222222" stop-opacity=".27451"/><stop offset="1" stop-opacity="0"/></linearGradient><radialGradient id="c" cx="450.908936" cy="189.579361" gradientTransform="matrix(.00000013 -.0585994 -.105479 -.00000008 36.617284 47.696499)" gradientUnits="userSpaceOnUse" r="21.166656" xlink:href="#b"/><radialGradient id="d" cx="450.908936" cy="189.579361" gradientTransform="matrix(-.00000013 .0585994 .105479 .00000008 -13.298649 -5.645609)" gradientUnits="userSpaceOnUse" r="21.166656" xlink:href="#b"/><radialGradient id="e" cx="450.908936" cy="189.579361" gradientTransform="matrix(-.00000013 -.0585994 .105479 -.00000008 -13.298649 47.696499)" gradientUnits="userSpaceOnUse" r="21.166656" xlink:href="#b"/><radialGradient id="f" cx="450.908936" cy="189.579361" gradientTransform="matrix(.00000013 .0585994 -.105479 .00000008 36.617282 -5.64561)" gradientUnits="userSpaceOnUse" r="21.166656" xlink:href="#b"/><linearGradient id="g" gradientUnits="userSpaceOnUse" x1="11.65929" x2="11.65929" y1="21.02539814717" y2="2.17207757661"><stop offset="0" stop-color="#616161"/><stop offset="1" stop-color="#757575"/></linearGradient><linearGradient id="h"><stop offset="0" stop-color="#ffa726"/><stop offset="1" stop-color="#ffb74d"/></linearGradient><linearGradient id="i" gradientUnits="userSpaceOnUse" x1="11.65929" x2="11.65929" xlink:href="#h" y1="21.02539814717" y2="2.17207757661"/><linearGradient id="j" gradientTransform="matrix(.00877062 .00877062 -.00877062 .00877062 15.628182 1.460995)" gradientUnits="userSpaceOnUse" x1="1157.781738" x2="614.728943" xlink:href="#h" y1="1072.898926" y2="504.996185"/><path d="m6.449219 21.027344h10.417969v.992187h-10.417969zm0 0" fill="url(#a)"/><path d="m16.867188 21.027344h1.984374v-.996094h-1.984374zm0 0" fill="url(#c)"/><path d="m6.449219 21.027344h-1.984375v.992187h1.984375zm0 0" fill="url(#d)"/><path d="m6.449219 21.027344h-1.984375v-.996094h1.984375zm0 0" fill="url(#e)"/><path d="m16.867188 21.027344h1.984374v.992187h-1.984374zm0 0" fill="url(#f)"/><path d="m5.457031 2.171875c-.550781 0-.992187.441406-.992187.992187v16.867188c0 .550781.441406.996094.992187.996094h12.402344c.550781 0 .992187-.445313.992187-.996094v-13.394531l-4.464843-4.464844zm9.921875 0 3.472656 3.472656v-2.480469c0-.550781-.441406-.992187-.992187-.992187zm0 0" fill="url(#g)"/><path d="m15.378906 2.171875 3.472656 3.472656v-2.480469c0-.550781-.441406-.992187-.992187-.992187zm0 0" fill="url(#i)"/><path d="m5.457031 2.171875c-.550781 0-.992187.441406-.992187.992187v.25c0-.550781.441406-.992187.992187-.992187h8.929688l4.464843 4.464844v-.25l-4.464843-4.464844zm9.921875 0 .25.25h2.230469c.550781 0 .992187.441406.992187.992187v-.25c0-.550781-.441406-.992187-.992187-.992187zm0 0" fill="#fff" fill-opacity=".392157"/><path d="m15.378906 2.171875 3.472656 3.472656v-.367187l-3.101562-3.105469zm-10.914062 17.492187v.367188c0 .550781.441406.996094.992187.996094h12.402344c.550781 0 .992187-.445313.992187-.996094v-.367188c0 .550782-.441406.992188-.992187.992188h-12.402344c-.550781 0-.992187-.441406-.992187-.992188zm0 0" fill-opacity=".235294"/><path d="m5.457031 2.101562c-.585937 0-1.0625.476563-1.0625 1.0625v16.867188c0 .589844.476563 1.066406 1.0625 1.066406h12.402344c.589844 0 1.0625-.476562 1.0625-1.066406v-13.394531c0-.019531-.003906-.035157-.019531-.050781l-4.464844-4.464844c-.011719-.011719-.03125-.019532-.050781-.019532zm9.921875 0c-.027344 0-.050781.015626-.0625.042969-.011718.027344-.007812.058594.015625.078125l3.472657 3.472656c.019531.019532.050781.027344.074218.015626.027344-.011719.042969-.039063.042969-.066407v-2.480469c0-.585937-.472656-1.0625-1.0625-1.0625zm-9.921875.140626h8.902344l4.421875 4.425781v13.363281c0 .515625-.40625.925781-.921875.925781h-12.402344c-.511719 0-.921875-.410156-.921875-.925781v-16.867188c0-.511718.410156-.921874.921875-.921874zm10.09375 0h2.308594c.515625 0 .921875.410156.921875.921874v2.3125zm0 0" fill="#212121"/><path d="m18.652344 12.878906c-.253906 0-.507813.097656-.699219.292969l-3.511719 3.507813-.523437.527343 2.453125 2.453125.527344-.523437 3.507812-3.511719c.390625-.386719.390625-1.011719 0-1.402344l-1.050781-1.050781c-.195313-.195313-.449219-.292969-.703125-.292969zm-5.261719 4.851563c-.058594.058593-.101563.128906-.125.214843l-.703125 2.457032c-.105469.375.238281.71875.613281.613281l2.457031-.703125c.085938-.023438.15625-.070312.214844-.125zm0 0" fill="url(#j)"/><path d="m18.628906 12.894531c-.253906 0-.507812.097657-.703125.292969l-4.035156 4.035156.136719.132813 3.898437-3.898438c.011719-.011719.023438-.023437.039063-.035156.011718-.011719.023437-.023437.039062-.03125.019532-.015625.039063-.03125.058594-.046875s.039062-.027344.0625-.039062c.027344-.015626.054688-.03125.085938-.046876.101562-.046874.210937-.078124.320312-.085937.035156-.003906.066406-.003906.097656-.003906s.0625 0 .09375.003906c.109375.007813.21875.039063.324219.085937.027344.015626.058594.03125.085937.046876.019532.011718.042969.023437.0625.039062.019532.015625.039063.03125.058594.046875.011719.007813.027344.019531.039063.03125s.023437.023437.035156.035156l1.054687 1.054688c.007813.007812.015626.015625.027344.027343 0 0 .003906.003907.007813.007813.003906.007813.011719.011719.015625.019531.003906.003906.007812.007813.007812.011719.007813.007813.015625.011719.019532.019531 0 .003906.003906.003906.003906.007813.007812.011719.015625.019531.023437.03125 0 0 .003907.003906.003907.003906.007812.007813.011718.019531.019531.027344 0 0 0 .003906.003906.007812.003906.007813.011719.015625.015625.027344 0 0 .003906 0 .003906.003906.007813.011719.011719.023438.019532.03125.003906.011719.011718.023438.015624.035157.003907.003906.003907.003906.003907.007812.003906.007812.007812.015625.011719.027344.003906 0 .003906.003906.003906.007812.003906.011719.011718.019532.015625.03125.003906.011719.007812.027344.011719.039063.003906.011719.007812.023437.011718.035156 0 0 0 .003906.003906.003906.003907.011719.003907.023438.007813.035157.007813.027343.011719.050781.015625.078124h.003906c0 .011719.003906.023438.003906.035157v.003906c.039063-.296875-.054687-.609375-.28125-.835937l-1.054687-1.054688c-.191406-.195312-.445313-.292969-.699219-.292969zm-5.261718 4.855469c-.058594.054688-.101563.128906-.128907.214844l-.699219 2.453125c-.027343.097656-.027343.1875 0 .273437 0 0 0 0 0-.003906l.699219-2.453125c.027344-.085937.070313-.160156.128907-.214844l2.292968 2.292969c.0625-.027344.117188-.0625.160156-.109375zm0 0" fill="#d7d7d7" fill-opacity=".588235" fill-rule="evenodd"/><path d="m20.691406 14.800781c-.027344.210938-.121094.414063-.285156.578125l-4.035156 4.035156-2.332032-2.332031-.121093.125 2.453125 2.453125.527344-.523437 3.507812-3.511719c.226562-.222656.320312-.53125.285156-.824219zm-4.992187 5.238281c-.019531.011719-.042969.019532-.066407.027344l-2.457031.699219c-.28125.082031-.550781-.097656-.617187-.351563-.09375.371094.246094.707032.617187.601563l2.457031-.703125c.085938-.023438.15625-.070312.214844-.125zm0 0" fill-opacity=".235294"/><g fill="none" stroke="#212121" stroke-linecap="round" stroke-linejoin="round" stroke-width="3" transform="matrix(.0468795 0 0 .0468795 0 10.079087)"><path d="m412.877239 65.973168c-8.332538-8.332537-21.664598-8.332537-29.91381 0l-74.909513 74.826188-11.165601 11.248926 52.328336 52.328336 11.248926-11.1656 74.826188-74.909513c8.332538-8.249213 8.332538-21.581273 0-29.91381zm0 0"/><path d="m285.639389 163.213882c-1.24988 1.249881-2.166459 2.749738-2.666412 4.582896l-14.998567 52.411662c-2.249785 7.999236 5.082848 15.331869 13.082084 13.082084l52.411661-14.998568c1.833159-.499952 3.333015-1.499857 4.582896-2.666412zm0 0"/></g></svg>

<?xml version="1.0" encoding="UTF-8"?>
<svg xmlns="http://www.w3.org/2000/svg" xmlns:xlink="http://www.w3.org/1999/xlink" width="24px" height="24px" viewBox="0 0 24 24" version="1.1">
<defs>
<linearGradient id="linear0" gradientUnits="userSpaceOnUse" x1="254" y1="233.5" x2="254" y2="254.666672" gradientTransform="matrix(0.0468795,0,0,0.0468795,-0.0000028613,10.079089)">
<stop offset="0" style="stop-color:rgb(0%,0%,0%);stop-opacity:0.27451;"/>
<stop offset="1" style="stop-color:rgb(0%,0%,0%);stop-opacity:0;"/>
</linearGradient>
<radialGradient id="radial0" gradientUnits="userSpaceOnUse" cx="450.908936" cy="189.579361" fx="450.908936" fy="189.579361" r="21.166656" gradientTransform="matrix(0.000000130628,-0.0585994,-0.105479,-0.0000000761539,36.617284,47.696499)">
<stop offset="0" style="stop-color:rgb(0%,0%,0%);stop-opacity:0.313726;"/>
<stop offset="0.222222" style="stop-color:rgb(0%,0%,0%);stop-opacity:0.27451;"/>
<stop offset="1" style="stop-color:rgb(0%,0%,0%);stop-opacity:0;"/>
</radialGradient>
<radialGradient id="radial1" gradientUnits="userSpaceOnUse" cx="450.908936" cy="189.579361" fx="450.908936" fy="189.579361" r="21.166656" gradientTransform="matrix(-0.000000130628,0.0585994,0.105479,0.0000000761539,-13.298649,-5.645609)">
<stop offset="0" style="stop-color:rgb(0%,0%,0%);stop-opacity:0.313726;"/>
<stop offset="0.222222" style="stop-color:rgb(0%,0%,0%);stop-opacity:0.27451;"/>
<stop offset="1" style="stop-color:rgb(0%,0%,0%);stop-opacity:0;"/>
</radialGradient>
<radialGradient id="radial2" gradientUnits="userSpaceOnUse" cx="450.908936" cy="189.579361" fx="450.908936" fy="189.579361" r="21.166656" gradientTransform="matrix(-0.000000130628,-0.0585994,0.105479,-0.0000000761539,-13.298649,47.696499)">
<stop offset="0" style="stop-color:rgb(0%,0%,0%);stop-opacity:0.313726;"/>
<stop offset="0.222222" style="stop-color:rgb(0%,0%,0%);stop-opacity:0.27451;"/>
<stop offset="1" style="stop-color:rgb(0%,0%,0%);stop-opacity:0;"/>
</radialGradient>
<radialGradient id="radial3" gradientUnits="userSpaceOnUse" cx="450.908936" cy="189.579361" fx="450.908936" fy="189.579361" r="21.166656" gradientTransform="matrix(0.000000130628,0.0585994,-0.105479,0.0000000761539,36.617282,-5.64561)">
<stop offset="0" style="stop-color:rgb(0%,0%,0%);stop-opacity:0.313726;"/>
<stop offset="0.222222" style="stop-color:rgb(0%,0%,0%);stop-opacity:0.27451;"/>
<stop offset="1" style="stop-color:rgb(0%,0%,0%);stop-opacity:0;"/>
</radialGradient>
<linearGradient id="linear1" gradientUnits="userSpaceOnUse" x1="940" y1="1695.118164" x2="940" y2="175.118118" gradientTransform="matrix(0.0124035,0,0,0.0124035,0,0.00000000000000141)">
<stop offset="0" style="stop-color:rgb(38.039216%,38.039216%,38.039216%);stop-opacity:1;"/>
<stop offset="1" style="stop-color:rgb(45.882353%,45.882353%,45.882353%);stop-opacity:1;"/>
</linearGradient>
<linearGradient id="linear2" gradientUnits="userSpaceOnUse" x1="940" y1="1695.118164" x2="940" y2="175.118118" gradientTransform="matrix(0.0124035,0,0,0.0124035,0,0.00000000000000141)">
<stop offset="0" style="stop-color:rgb(100%,65.490198%,14.901961%);stop-opacity:1;"/>
<stop offset="1" style="stop-color:rgb(100%,71.764708%,30.19608%);stop-opacity:1;"/>
</linearGradient>
<linearGradient id="linear3" gradientUnits="userSpaceOnUse" x1="1157.781738" y1="1072.898926" x2="614.728943" y2="504.996185" gradientTransform="matrix(0.00877062,0.00877062,-0.00877062,0.00877062,15.628182,1.460995)">
<stop offset="0" style="stop-color:rgb(100%,65.490198%,14.901961%);stop-opacity:1;"/>
<stop offset="1" style="stop-color:rgb(100%,71.764708%,30.19608%);stop-opacity:1;"/>
</linearGradient>
</defs>
<g id="surface1">
<path style=" stroke:none;fill-rule:nonzero;fill:url(#linear0);" d="M 6.449219 21.027344 L 16.867188 21.027344 L 16.867188 22.019531 L 6.449219 22.019531 Z M 6.449219 21.027344 "/>
<path style=" stroke:none;fill-rule:nonzero;fill:url(#radial0);" d="M 16.867188 21.027344 L 18.851562 21.027344 L 18.851562 20.03125 L 16.867188 20.03125 Z M 16.867188 21.027344 "/>
<path style=" stroke:none;fill-rule:nonzero;fill:url(#radial1);" d="M 6.449219 21.027344 L 4.464844 21.027344 L 4.464844 22.019531 L 6.449219 22.019531 Z M 6.449219 21.027344 "/>
<path style=" stroke:none;fill-rule:nonzero;fill:url(#radial2);" d="M 6.449219 21.027344 L 4.464844 21.027344 L 4.464844 20.03125 L 6.449219 20.03125 Z M 6.449219 21.027344 "/>
<path style=" stroke:none;fill-rule:nonzero;fill:url(#radial3);" d="M 16.867188 21.027344 L 18.851562 21.027344 L 18.851562 22.019531 L 16.867188 22.019531 Z M 16.867188 21.027344 "/>
<path style=" stroke:none;fill-rule:nonzero;fill:url(#linear1);" d="M 5.457031 2.171875 C 4.90625 2.171875 4.464844 2.613281 4.464844 3.164062 L 4.464844 20.03125 C 4.464844 20.582031 4.90625 21.027344 5.457031 21.027344 L 17.859375 21.027344 C 18.410156 21.027344 18.851562 20.582031 18.851562 20.03125 L 18.851562 6.636719 L 14.386719 2.171875 Z M 15.378906 2.171875 L 18.851562 5.644531 L 18.851562 3.164062 C 18.851562 2.613281 18.410156 2.171875 17.859375 2.171875 Z M 15.378906 2.171875 "/>
<path style=" stroke:none;fill-rule:nonzero;fill:url(#linear2);" d="M 15.378906 2.171875 L 18.851562 5.644531 L 18.851562 3.164062 C 18.851562 2.613281 18.410156 2.171875 17.859375 2.171875 Z M 15.378906 2.171875 "/>
<path style=" stroke:none;fill-rule:nonzero;fill:rgb(100%,100%,100%);fill-opacity:0.392157;" d="M 5.457031 2.171875 C 4.90625 2.171875 4.464844 2.613281 4.464844 3.164062 L 4.464844 3.414062 C 4.464844 2.863281 4.90625 2.421875 5.457031 2.421875 L 14.386719 2.421875 L 18.851562 6.886719 L 18.851562 6.636719 L 14.386719 2.171875 Z M 15.378906 2.171875 L 15.628906 2.421875 L 17.859375 2.421875 C 18.410156 2.421875 18.851562 2.863281 18.851562 3.414062 L 18.851562 3.164062 C 18.851562 2.613281 18.410156 2.171875 17.859375 2.171875 Z M 15.378906 2.171875 "/>
<path style=" stroke:none;fill-rule:nonzero;fill:rgb(0%,0%,0%);fill-opacity:0.235294;" d="M 15.378906 2.171875 L 18.851562 5.644531 L 18.851562 5.277344 L 15.75 2.171875 Z M 4.464844 19.664062 L 4.464844 20.03125 C 4.464844 20.582031 4.90625 21.027344 5.457031 21.027344 L 17.859375 21.027344 C 18.410156 21.027344 18.851562 20.582031 18.851562 20.03125 L 18.851562 19.664062 C 18.851562 20.214844 18.410156 20.65625 17.859375 20.65625 L 5.457031 20.65625 C 4.90625 20.65625 4.464844 20.214844 4.464844 19.664062 Z M 4.464844 19.664062 "/>
<path style=" stroke:none;fill-rule:nonzero;fill:rgb(12.941177%,12.941177%,12.941177%);fill-opacity:1;" d="M 5.457031 2.101562 C 4.871094 2.101562 4.394531 2.578125 4.394531 3.164062 L 4.394531 20.03125 C 4.394531 20.621094 4.871094 21.097656 5.457031 21.097656 L 17.859375 21.097656 C 18.449219 21.097656 18.921875 20.621094 18.921875 20.03125 L 18.921875 6.636719 C 18.921875 6.617188 18.917969 6.601562 18.902344 6.585938 L 14.4375 2.121094 C 14.425781 2.109375 14.40625 2.101562 14.386719 2.101562 Z M 15.378906 2.101562 C 15.351562 2.101562 15.328125 2.117188 15.316406 2.144531 C 15.304688 2.171875 15.308594 2.203125 15.332031 2.222656 L 18.804688 5.695312 C 18.824219 5.714844 18.855469 5.722656 18.878906 5.710938 C 18.90625 5.699219 18.921875 5.671875 18.921875 5.644531 L 18.921875 3.164062 C 18.921875 2.578125 18.449219 2.101562 17.859375 2.101562 Z M 5.457031 2.242188 L 14.359375 2.242188 L 18.78125 6.667969 L 18.78125 20.03125 C 18.78125 20.546875 18.375 20.957031 17.859375 20.957031 L 5.457031 20.957031 C 4.945312 20.957031 4.535156 20.546875 4.535156 20.03125 L 4.535156 3.164062 C 4.535156 2.652344 4.945312 2.242188 5.457031 2.242188 Z M 15.550781 2.242188 L 17.859375 2.242188 C 18.375 2.242188 18.78125 2.652344 18.78125 3.164062 L 18.78125 5.476562 Z M 15.550781 2.242188 "/>
<path style=" stroke:none;fill-rule:nonzero;fill:url(#linear3);" d="M 18.652344 12.878906 C 18.398438 12.878906 18.144531 12.976562 17.953125 13.171875 L 14.441406 16.679688 L 13.917969 17.207031 L 16.371094 19.660156 L 16.898438 19.136719 L 20.40625 15.625 C 20.796875 15.238281 20.796875 14.613281 20.40625 14.222656 L 19.355469 13.171875 C 19.160156 12.976562 18.90625 12.878906 18.652344 12.878906 Z M 13.390625 17.730469 C 13.332031 17.789062 13.289062 17.859375 13.265625 17.945312 L 12.5625 20.402344 C 12.457031 20.777344 12.800781 21.121094 13.175781 21.015625 L 15.632812 20.3125 C 15.71875 20.289062 15.789062 20.242188 15.847656 20.1875 Z M 13.390625 17.730469 "/>
<path style=" stroke:none;fill-rule:evenodd;fill:rgb(84.313726%,84.313726%,84.313726%);fill-opacity:0.588235;" d="M 18.628906 12.894531 C 18.375 12.894531 18.121094 12.992188 17.925781 13.1875 L 13.890625 17.222656 L 14.027344 17.355469 L 17.925781 13.457031 C 17.9375 13.445312 17.949219 13.433594 17.964844 13.421875 C 17.976562 13.410156 17.988281 13.398438 18.003906 13.390625 C 18.023438 13.375 18.042969 13.359375 18.0625 13.34375 C 18.082031 13.328125 18.101562 13.316406 18.125 13.304688 C 18.152344 13.289062 18.179688 13.273438 18.210938 13.257812 C 18.3125 13.210938 18.421875 13.179688 18.53125 13.171875 C 18.566406 13.167969 18.597656 13.167969 18.628906 13.167969 C 18.660156 13.167969 18.691406 13.167969 18.722656 13.171875 C 18.832031 13.179688 18.941406 13.210938 19.046875 13.257812 C 19.074219 13.273438 19.105469 13.289062 19.132812 13.304688 C 19.152344 13.316406 19.175781 13.328125 19.195312 13.34375 C 19.214844 13.359375 19.234375 13.375 19.253906 13.390625 C 19.265625 13.398438 19.28125 13.410156 19.292969 13.421875 C 19.304688 13.433594 19.316406 13.445312 19.328125 13.457031 L 20.382812 14.511719 C 20.390625 14.519531 20.398438 14.527344 20.410156 14.539062 C 20.410156 14.539062 20.414062 14.542969 20.417969 14.546875 C 20.421875 14.554688 20.429688 14.558594 20.433594 14.566406 C 20.4375 14.570312 20.441406 14.574219 20.441406 14.578125 C 20.449219 14.585938 20.457031 14.589844 20.460938 14.597656 C 20.460938 14.601562 20.464844 14.601562 20.464844 14.605469 C 20.472656 14.617188 20.480469 14.625 20.488281 14.636719 C 20.488281 14.636719 20.492188 14.640625 20.492188 14.640625 C 20.5 14.648438 20.503906 14.660156 20.511719 14.667969 C 20.511719 14.667969 20.511719 14.671875 20.515625 14.675781 C 20.519531 14.683594 20.527344 14.691406 20.53125 14.703125 C 20.53125 14.703125 20.535156 14.703125 20.535156 14.707031 C 20.542969 14.71875 20.546875 14.730469 20.554688 14.738281 C 20.558594 14.75 20.566406 14.761719 20.570312 14.773438 C 20.574219 14.777344 20.574219 14.777344 20.574219 14.78125 C 20.578125 14.789062 20.582031 14.796875 20.585938 14.808594 C 20.589844 14.808594 20.589844 14.8125 20.589844 14.816406 C 20.59375 14.828125 20.601562 14.835938 20.605469 14.847656 C 20.609375 14.859375 20.613281 14.875 20.617188 14.886719 C 20.621094 14.898438 20.625 14.910156 20.628906 14.921875 C 20.628906 14.921875 20.628906 14.925781 20.632812 14.925781 C 20.636719 14.9375 20.636719 14.949219 20.640625 14.960938 C 20.648438 14.988281 20.652344 15.011719 20.65625 15.039062 C 20.65625 15.039062 20.660156 15.039062 20.660156 15.039062 C 20.660156 15.050781 20.664062 15.0625 20.664062 15.074219 C 20.664062 15.074219 20.664062 15.078125 20.664062 15.078125 C 20.703125 14.78125 20.609375 14.46875 20.382812 14.242188 L 19.328125 13.1875 C 19.136719 12.992188 18.882812 12.894531 18.628906 12.894531 Z M 13.367188 17.75 C 13.308594 17.804688 13.265625 17.878906 13.238281 17.964844 L 12.539062 20.417969 C 12.511719 20.515625 12.511719 20.605469 12.539062 20.691406 C 12.539062 20.691406 12.539062 20.691406 12.539062 20.6875 L 13.238281 18.234375 C 13.265625 18.148438 13.308594 18.074219 13.367188 18.019531 L 15.660156 20.3125 C 15.722656 20.285156 15.777344 20.25 15.820312 20.203125 Z M 13.367188 17.75 "/>
<path style=" stroke:none;fill-rule:nonzero;fill:rgb(0%,0%,0%);fill-opacity:0.235294;" d="M 20.691406 14.800781 C 20.664062 15.011719 20.570312 15.214844 20.40625 15.378906 L 16.371094 19.414062 L 14.039062 17.082031 L 13.917969 17.207031 L 16.371094 19.660156 L 16.898438 19.136719 L 20.40625 15.625 C 20.632812 15.402344 20.726562 15.09375 20.691406 14.800781 Z M 15.699219 20.039062 C 15.679688 20.050781 15.65625 20.058594 15.632812 20.066406 L 13.175781 20.765625 C 12.894531 20.847656 12.625 20.667969 12.558594 20.414062 C 12.464844 20.785156 12.804688 21.121094 13.175781 21.015625 L 15.632812 20.3125 C 15.71875 20.289062 15.789062 20.242188 15.847656 20.1875 Z M 15.699219 20.039062 "/>
<path style="fill:none;stroke-width:3;stroke-linecap:round;stroke-linejoin:round;stroke:rgb(12.941177%,12.941177%,12.941177%);stroke-opacity:1;stroke-miterlimit:4;" d="M 412.877239 65.973168 C 404.544701 57.640631 391.212641 57.640631 382.963429 65.973168 L 308.053916 140.799356 L 296.888315 152.048282 L 349.216651 204.376618 L 360.465577 193.211018 L 435.291765 118.301505 C 443.624303 110.052292 443.624303 96.720232 435.291765 88.387695 Z M 412.877239 65.973168 " transform="matrix(0.0468795,0,0,0.0468795,0,10.079087)"/>
<path style="fill:none;stroke-width:3;stroke-linecap:round;stroke-linejoin:round;stroke:rgb(12.941177%,12.941177%,12.941177%);stroke-opacity:1;stroke-miterlimit:4;" d="M 285.639389 163.213882 C 284.389509 164.463763 283.47293 165.96362 282.972977 167.796778 L 267.97441 220.20844 C 265.724625 228.207676 273.057258 235.540309 281.056494 233.290524 L 333.468155 218.291956 C 335.301314 217.792004 336.80117 216.792099 338.051051 215.625544 Z M 285.639389 163.213882 " transform="matrix(0.0468795,0,0,0.0468795,0,10.079087)"/>
</g>
</svg>
